X:628
T: Sadie at the Back Door - D
C: Jere Canote 
N:(revised by C. Maher from Perpetual e-Motion CD)
M: C|
L: 1/8
K: D
|: "D"a2g2 f2<e2 |d3e d2fg | a2g2 fed2|"C"=c3d c2e2 |\
"D"a2g2 fed2 |"C"=c4B4 | "C"=c2Bc BAFE| "D"D8 :|
|: "D"F2FE D4 |FGFE D4 | "C"=c2B2 ABAF |"D"D3E D4 |\
 "D"F2FE D4 |"C"=c4B4 |1 "C"=c2Bc BAFE| "D"D8:|2 "C" f3d BAFE|"D"D8 |]

